arkscan/icons/orangex.svg

<svg width="200" height="200" viewBox="0 0 200 200" fill="none" xmlns="http://www.w3.org/2000/svg">
<path fill-rule="evenodd" clip-rule="evenodd" d="M164.718 92.9618C163.282 79.4874 157.739 67.2404 149.364 57.4974L174.132 32.7298C188.795 48.8787 198.254 69.8388 199.86 92.9618H164.718ZM150.425 141.12C158.672 131.021 163.949 118.402 164.924 104.595H200C198.939 128.068 189.795 149.436 175.284 165.979L150.425 141.12ZM104.593 164.924C118.942 163.911 132.008 158.252 142.295 149.442L167.121 174.267C150.423 189.367 128.61 198.915 104.593 200V164.924ZM57.4975 149.364C67.2398 157.739 79.4862 163.282 92.9599 164.717V199.86C69.8379 198.253 48.8782 188.795 32.7296 174.132L57.4975 149.364ZM34.9594 104.595C35.931 118.36 41.179 130.944 49.3827 141.027L24.5826 165.827C10.1492 149.305 1.05723 127.996 0 104.595H34.9594ZM50.441 57.588C42.1096 67.3161 36.5962 79.529 35.1653 92.9618H0.140012C1.74112 69.9103 11.1466 49.008 25.7322 32.8794L50.441 57.588ZM104.593 34.9594C118.359 35.9305 130.944 41.1787 141.027 49.3829L165.827 24.5829C149.304 10.1489 127.995 1.05689 104.593 0V34.9594ZM92.9599 0.140194V35.1655C80.0634 36.5396 68.2912 41.6771 58.7632 49.4582L34.0206 24.7157C49.988 10.7106 70.4491 1.7041 92.9599 0.140194Z" fill="#FF8200"/>
</svg>

<svg width="200" height="200" fill="none" xmlns="http://www.w3.org/2000/svg"><path fill-rule="evenodd" clip-rule="evenodd" d="M164.718 92.962c-1.436-13.475-6.979-25.722-15.354-35.465l24.768-24.767c14.663 16.149 24.122 37.109 25.728 60.232h-35.142Zm-14.293 48.158c8.247-10.099 13.524-22.718 14.499-36.525H200c-1.061 23.473-10.205 44.841-24.716 61.384l-24.859-24.859Zm-45.832 23.804c14.349-1.013 27.415-6.672 37.702-15.482l24.826 24.825c-16.698 15.1-38.511 24.648-62.528 25.733v-35.076Zm-47.096-15.56c9.743 8.375 21.99 13.918 35.463 15.353v35.143c-23.122-1.607-44.082-11.065-60.23-25.728l24.768-24.768ZM34.96 104.595c.972 13.765 6.22 26.349 14.424 36.432l-24.8 24.8C10.149 149.305 1.057 127.996 0 104.595h34.96Zm15.482-47.007c-8.331 9.728-13.845 21.941-15.276 35.374H.14C1.741 69.91 11.147 49.008 25.732 32.879l24.709 24.709Zm54.152-22.629c13.766.971 26.351 6.22 36.434 14.424l24.8-24.8C149.304 10.149 127.995 1.057 104.593 0v34.96ZM92.96.14v35.026C80.063 36.54 68.29 41.677 58.763 49.458L34.021 24.716C49.988 10.71 70.449 1.704 92.96.14Z" fill="#FF8200"/></svg>
